X: 4764
T: Boys Of Coomanore, The
R: jig
M: 6/8
K: Dmajor
|F2 E FDD|cde dAG|FGE FDD|EFG EFG|
FGE FDD|cde dAG|FGA GEA|1 D3 D2 E:|2 D3 D2A||
ABc dcd|fed edc|ABc dcd|eag edc|
ABc d2 e|fed edc|FGA GEA|1 D3 D2 A:|D3 D2 E||

